X: 19297
T: J.B., The
R: reel
M: 4/4
K: Emajor
|:A/B/ccB AFFE|CFFG AecB|A/B/ccB AFFd|eEEG BAGE|
A/B/ccB AFFE|CFFG ABcd|e2Be dfBd|e/f/g Be GBEG:|
|:Fffg agfe|cAAB ABcA|Fffg agfa|bagf eEBG|
Fffg agfa|gfed egbg|fgaf ecBA|GABc AFFE:|

